X: 3
T: Mayor Harrison's Fedora
R: reel
M: 4/4
L: 1/8
K: Edor
|:G2 GF GABc|dBAG FDDA|Be (3eee edef||gefd e2 (3ABc|dcdB AGFA|GEFD EFGA||dedB AGFA|1 GEFD E2 (3DEF:|2 GEFD ~E3 F|


Tune 367	Setting 28963

